X:1
T:Luci beate e belle
T:Luci beate e belle
T:Giovanni Nauwach
T:Source : Libro primo di Arie passeggiate a una voce + BC ---Brescia---1623. Editor : André Vierendeels (28/10/16).
T:Notes : Original clefs : C1, F4 Editorial accidentals above the staff Figures in BC are notated in original print
T:©
T:©
T:©
T:©
T:©
C:Giovanni Nauwach
Z:©
%%score 1 2
L:1/8
Q:1/4=85
M:4/4
K:F
V:1 treble nm="Soprano" snm="S"
V:2 bass nm="MusicXML Part"
V:1
 d2 dd d4- | d2 A2 A4 | G6 fe | d2 cB A/B/c/F/ TB>A | B6 d2 | dcBA _e/d/c/B/ A/G/^F/E/ | %6
w: Lu- ci be- a-|* t'e bel-|le, voi co'l|lu- m'e co'l go- * * * * *|ro, il|cor _ _ _ gia _ _ _ _ _ _ _|
 ^F3 G A2 A2 | z2 E2 F/G/A/F/ G/F/G/A/ | D/E/F/E/ F/G/D/E/ F/G/A/B/ c/d/E | E8 | D6 d2 | B3 A A4- | %12
w: mi ra- pi- sto|en' voi _ _ _ _ _ _ _|_ _ _ _ _ _ _ _ _ _ _ _ _ _ lo|mi-|ro, voi|se te'al me|
 A2 B/A/B/G/ c4 | c2 d2 _e3 d | c/B/c/A/ B/A/B/c/ d3 A | A8 | G6 B2 | B2 B2 d4- | %18
w: _ fa- * * * cel-|le, e'l ro- go'e'l|La- * * * * * * * * bi-|rin-|to, O|v'el mio cor|
 d2 G/F/G/A/ B/A/c/B/ A/G/F/E/ | ^F2 F2 z2 c2 | B2 AB c4 | c4 z ABc | dc TcB/A/ BAAG | %23
w: _ gio- * * * * * * * * * * *|is- ce, ac-|ce- so e cin-|to, va- ghe'a- mo-|ro- * * * * * * * *|
 AG TGF/E/ D/E/F/4G/4A/4B/4 c/d/A | A4 G2 d2 | B3 A c4- | c2 B/A/B/G/ A/B/c/B/ A2 | G6 G/A/B/A/ | %28
w: * * * * * * * * * * * * * se|stel- le, voi|ne l'a- ma-|* to _ _ _ _ _ _ _ vi-|so, fa- * * *|
 GA/B/ c/B/A B/c/d/c/ B>c | dc/B/ A/G/F/E/ ^F4 |"^-natural" z A B2 ^c2 d2- | d2 ^c2 d4 | %32
w: |te'l _ _ _ _ _ _ ciel|ch'à quest' al _|_ _ ma|
 d/c/B/A/ B/G/ _e/d/ c/B/A/G/ F/E/F/D/ | E/F/G/A/ B/c/d/B/ c/d/G/A/ B/G/A/B/ | %34
w: è _ _ _ _ _ pa- * * * * * * * * *||
 c/G/A/B/ c/4d/4_e/4f/4g/A/ A4 | !fermata!G8 |] %36
w: * * * * * * * * * ra- di-|so.|
V:2
"^BC" G,4 G,,2 A,,2 |"^#" B,,2 C,2 D,4 | G,,4 B,,4 | B,,2 C,2 F,4 | B,,2 A,,2 G,,4 |"^b" G,4 C,4 | %6
"^#" D,3 E, F,4 | C,4 D,4 | B,,4 A,,2 G,,2 |"^#""^3443" A,,8 | D,8 | G,4 F,4 | _E,4 C,4 | %13
"^b" C,2 B,,2 C,2 D,2 | _E,4 B,,4 |"^# 3443" D,8 | G,,4 G,4 | G,4 G,,4 | _E,4 E,4 | %19
"^#" D,4 E,2 F,2 | G,4 F,4- | F,F,G,A, B,4- | B,4 G,4 | F,4 B,,4 |"^#" D,4 G,,4 | G,4 F,4 | %26
"^#" _E,4 D,4 | G,,4 G,4- | G,2 F,2 _E,4 |"^#" B,,4 D,2 E,2 | %30
"^3443""^#""^(-natural)" F,2 G,2 A,4- | A,4 D,2 C,2 | B,,2 _E,2 F,2 D,2 | C,2 B,,2 A,,2 G,,2 | %34
"^b""^#" C,4 D,4 | !fermata!G,,8 |] %36

